boxicons/svg/regular/bx-arrow-from-left.svg

<svg xmlns="http://www.w3.org/2000/svg" width="24" height="24" viewBox="0 0 24 24"><path d="M4 6h2v12H4zm4 7h8.586l-4.293 4.293 1.414 1.414L20.414 12l-6.707-6.707-1.414 1.414L16.586 11H8z"/></svg>

<svg xmlns="http://www.w3.org/2000/svg" width="24" height="24" viewBox="0 0 24 24"><path d="M4 6H6V18H4zM8 13L16.586 13 12.293 17.293 13.707 18.707 20.414 12 13.707 5.293 12.293 6.707 16.586 11 8 11z"/></svg>
